_src/Options Cursor.svg

<?xml version="1.0" encoding="UTF-8" standalone="no"?>
<!-- Created with Inkscape (http://www.inkscape.org/) -->

<svg
   xmlns:dc="http://purl.org/dc/elements/1.1/"
   xmlns:cc="http://creativecommons.org/ns#"
   xmlns:rdf="http://www.w3.org/1999/02/22-rdf-syntax-ns#"
   xmlns:svg="http://www.w3.org/2000/svg"
   xmlns="http://www.w3.org/2000/svg"
   xmlns:sodipodi="http://sodipodi.sourceforge.net/DTD/sodipodi-0.dtd"
   xmlns:inkscape="http://www.inkscape.org/namespaces/inkscape"
   width="24"
   height="48"
   viewBox="0 0 24 48.000001"
   id="svg6465"
   version="1.1"
   inkscape:version="0.91 r13725"
   inkscape:export-filename="C:\Apps\StepMania-dev\StepMania 5.1-master\stepmania-5_1_0\Themes\fiftyOne\Graphics\OptionsCursor Right (doubleres).png"
   inkscape:export-xdpi="90"
   inkscape:export-ydpi="90"
   sodipodi:docname="Options Cursor.svg">
  <defs
     id="defs6467" />
  <sodipodi:namedview
     id="base"
     pagecolor="#ffffff"
     bordercolor="#666666"
     borderopacity="1.0"
     inkscape:pageopacity="0.0"
     inkscape:pageshadow="2"
     inkscape:zoom="5.6"
     inkscape:cx="-34.425878"
     inkscape:cy="47.145408"
     inkscape:document-units="px"
     inkscape:current-layer="layer1"
     showgrid="false"
     units="px"
     inkscape:window-width="1680"
     inkscape:window-height="987"
     inkscape:window-x="-8"
     inkscape:window-y="-8"
     inkscape:window-maximized="1" />
  <metadata
     id="metadata6470">
    <rdf:RDF>
      <cc:Work
         rdf:about="">
        <dc:format>image/svg+xml</dc:format>
        <dc:type
           rdf:resource="http://purl.org/dc/dcmitype/StillImage" />
        <dc:title></dc:title>
      </cc:Work>
    </rdf:RDF>
  </metadata>
  <g
     inkscape:label="Layer 1"
     inkscape:groupmode="layer"
     id="layer1"
     transform="translate(0,-1004.3622)">
    <path
       style="color:#000000;clip-rule:nonzero;display:inline;overflow:visible;visibility:visible;opacity:1;isolation:auto;mix-blend-mode:normal;color-interpolation:sRGB;color-interpolation-filters:linearRGB;solid-color:#000000;solid-opacity:1;fill:#d8d8d8;fill-opacity:0.76190479;fill-rule:evenodd;stroke:none;stroke-width:0.60000002;stroke-linecap:butt;stroke-linejoin:miter;stroke-miterlimit:4;stroke-dasharray:none;stroke-dashoffset:0;stroke-opacity:1;marker:none;color-rendering:auto;image-rendering:auto;shape-rendering:auto;text-rendering:auto;enable-background:accumulate"
       d="m -93.15671,1028.6119 22.201496,22.2018 c 1.491208,0 2.789282,0 4.282311,0 22.379238,8e-4 45.052224,2e-4 64.18911,0 1.493029,0 2.791103,0 4.282108,0 L 24,1028.6119 1.790419,1006.4103 l -4.274212,0 -64.18911,0 -4.274415,0 0,0 0,0 -22.201502,22.2016 z"
       id="rect4138-5-7-5"
       inkscape:connector-curvature="0" />
  </g>
</svg>

<?xml version="1.0" encoding="UTF-8" standalone="no"?>
<!DOCTYPE svg PUBLIC "-//W3C//DTD SVG 1.1//EN" "http://www.w3.org/Graphics/SVG/1.1/DTD/svg11.dtd">
<svg width="100%" height="100%" viewBox="0 0 24 48" version="1.1" xmlns="http://www.w3.org/2000/svg" xmlns:xlink="http://www.w3.org/1999/xlink" xml:space="preserve" style="fill-rule:evenodd;clip-rule:evenodd;stroke-linejoin:round;stroke-miterlimit:1.41421;">
    <g id="rect4138.-5.-7.-5" transform="matrix(1,0,0,1,0,-1004.36)">
        <path d="M-93.157,1028.61L-70.955,1050.81C-69.464,1050.81 -68.166,1050.81 -66.673,1050.81C-44.294,1050.82 -21.621,1050.81 -2.484,1050.81C-0.991,1050.81 0.307,1050.81 1.798,1050.81L24,1028.61L1.79,1006.41L-2.484,1006.41L-66.673,1006.41L-70.947,1006.41L-93.149,1028.61L-93.157,1028.61Z" style="fill:white;fill-opacity:0.760784;"/>
    </g>
</svg>
